**kern	**kern	**dynam
*part1	*part1	*part1
*staff2	*staff1	*
*I"Piano	*	*
*clefF4	*clefG2	*
*k[b-e-a-]	*k[b-e-a-]	*
=1	=1	=1
(8cL	(8b-L	.
8e-	8a-	.
8B-	8g	.
8e-J	8a-J)	.
=	=	=
8A-L	(8gL	.
8d	8f	.
8G	8e-	.
8B-J)	8gJ)	.
=	=	=
(8A-L	(8fL	.
8e-	8cc	.
8B-	8b-	.
8dJ)	8a-J)	.
=	=	=
(8E-L	(8f#XL	.
8e-	8g	.
8G	8b-	.
8B-J	8e-J)	.
=	=	=
8A-L	(8gL	.
8c	8fn	.
8BB-	8a-	.
8B-J)	8dJ)	.
=	=	=
8r	4e-	.
8E-L	.	.
8EE-J	8r	.
8r	8b-	p
=	=	=
4A-	(4e- 4cc	.
4G	4e- 4b-	.
=	=	=
4D 4B-	4f 4a-	.
4E- 4B-	4e- 4g	.
=	=	=
*^	*	*
4B-	4A-	4d 4f	.
*v	*v	*	*
8GL	8e-L	.
8E-J	8gJ)	.
=	=	=
*-	*-	*-
!!!system-decoration: {(s1,s2)}
